X:21142 
T:MUNSTER BACON 
B:DMI.0340
Z:Nordberg/Black
R:jig
%Q:1/4=160
M:6/8
L:1/8
K:D
G|ABA AFD|dfe d2c|BGB dAF|GEE E2G|
AFA dcd|BGB ege|agf ede|fdd d2:|
f|afd dfa|bge efg|faf ged|ecA A2G|
Fdd cee|dff efg|faf ede|fdd d2:|

%%%

